source/img/sprite/ruble.svg

<svg width="30" height="42" viewBox="0 0 30 42" fill="none" xmlns="http://www.w3.org/2000/svg">
<path fill-rule="evenodd" clip-rule="evenodd" d="M0 17H6V23H0V17Z" fill="#102654"/>
<path fill-rule="evenodd" clip-rule="evenodd" d="M3.65854 28.3214V18H9.65854V28.3214H21V34.3214H9.65854V42H3.65854V34.3214H0V28.3214H3.65854Z" fill="#102654"/>
<path fill-rule="evenodd" clip-rule="evenodd" d="M18.5 6H10V17H18.5C21.5376 17 24 14.5376 24 11.5C24 8.46243 21.5376 6 18.5 6ZM4 0V23H18.5C24.8513 23 30 17.8513 30 11.5C30 5.14873 24.8513 0 18.5 0H4Z" fill="#102654"/>
</svg>

<svg viewBox="0 0 30 42" fill="none" xmlns="http://www.w3.org/2000/svg"><path fill-rule="evenodd" clip-rule="evenodd" d="M0 17h6v6h-6v-6Z" fill="#102654"/><path fill-rule="evenodd" clip-rule="evenodd" d="M3.66 28.32v-10.32h6v10.32h11.34v6h-11.34v7.68h-6v-7.68h-3.66v-6h3.66Z" fill="#102654"/><path fill-rule="evenodd" clip-rule="evenodd" d="M18.5 6h-8.5v11h8.5a5.5 5.5 0 1 0 0-11Zm-14.5-6v23h14.5a11.5 11.5 0 1 0 0-23h-14.5Z" fill="#102654"/></svg>
